usr/share/icons/biglinux-icons-material/scalable/mimetypes/application-x-blender.svg

<svg width="24" height="24" viewBox="0 0 24 24" fill="none" xmlns="http://www.w3.org/2000/svg">
<rect x="1" y="1" width="22" height="22" rx="6.6" fill="url(#paint0_radial_1_572)"/>
<path d="M12 11.1355L19 7.534M12 11.1355V19.1585M12 11.1355L5.022 7.534M19 7.534V15.534L12 19.1585M19 7.534L12 4L5 7.534V15.534L12 19.1585" stroke="#F37329"/>
<defs>
<radialGradient id="paint0_radial_1_572" cx="0" cy="0" r="1" gradientUnits="userSpaceOnUse" gradientTransform="translate(17.5 1) rotate(116.565) scale(24.5967)">
<stop stop-color="#F4F4F4"/>
<stop offset="1" stop-color="#BBBBBB"/>
</radialGradient>
</defs>
</svg>

<svg xmlns="http://www.w3.org/2000/svg" width="24" height="24" fill="none"><rect width="22" height="22" x="1" y="1" fill="url(#a)" rx="6.6"/><path stroke="#F37329" d="m12 11.136 7-3.602m-7 3.602v8.023m0-8.023L5.022 7.534m13.978 0v8l-7 3.624m7-11.624L12 4 5 7.534v8l7 3.624"/><defs><radialGradient id="a" cx="0" cy="0" r="1" gradientTransform="rotate(116.565 8.441 5.908) scale(24.5967)" gradientUnits="userSpaceOnUse"><stop stop-color="#F4F4F4"/><stop offset="1" stop-color="#BBB"/></radialGradient></defs></svg>
